X:655
T: Qingfengnian
N: C2180
O: China,Hunan Xiangzhong
S: I, 504]
R: Shange]
M: 4/4
L: 1/16
K: D
B8-B3fd2d2 | d2B2d2B2d2B2d2B2 | B2d2fede(3dedB4
dd | e2d2d2d2e2d2d2d2 | e2d2BAA2-A6
BA | E2A2B2A2F2A2d2B2 | e2d2B2B8
ed | B2d2e2d2B2d2ede2 |
e2deBAA2-A6z2

@@@ Tune index: 7210
